material/.icons/material/bulletin-board.svg

<svg xmlns="http://www.w3.org/2000/svg" viewBox="0 0 24 24"><path d="M12.04 2.5L9.53 5h5l-2.49-2.5M4 7v13h16V7H4m8-7l5 5h3a2 2 0 012 2v13a2 2 0 01-2 2H4a2 2 0 01-2-2V7a2 2 0 012-2h3l5-5M7 18v-4h5v4H7m7-1v-7h4v7h-4m-8-5V9h5v3H6z"/></svg>

<?xml version="1.0" encoding="UTF-8"?><!DOCTYPE svg PUBLIC "-//W3C//DTD SVG 1.1//EN" "http://www.w3.org/Graphics/SVG/1.1/DTD/svg11.dtd"><svg xmlns="http://www.w3.org/2000/svg" xmlns:xlink="http://www.w3.org/1999/xlink" version="1.1" id="mdi-bulletin-board" width="24" height="24" viewBox="0 0 24 24"><path d="M12.04,2.5L9.53,5H14.53L12.04,2.5M4,7V20H20V7H4M12,0L17,5V5H20A2,2 0 0,1 22,7V20A2,2 0 0,1 20,22H4A2,2 0 0,1 2,20V7A2,2 0 0,1 4,5H7V5L12,0M7,18V14H12V18H7M14,17V10H18V17H14M6,12V9H11V12H6Z" /></svg>
